svgs/light/avocado.svg

<svg xmlns="http://www.w3.org/2000/svg" viewBox="0 0 512 512"><!-- Font Awesome Pro 6.0.0-alpha2 by @fontawesome - https://fontawesome.com License - https://fontawesome.com/license (Commercial License) --><path d="M512 142.318C512 70.266 455.555 0 371.464 0C332.255 0 292.751 15.734 263.405 45.174L263.239 45.342C232.202 76.479 192.976 97.303 150.634 108.908C115.364 118.576 0 170.828 0 306.706C0 420.521 92.755 512 205.062 512C257.433 512 309.796 491.959 349.755 451.871C417.401 384.006 392.311 321.853 465.735 248.189L470.093 243.818C498.031 215.79 512 179.054 512 142.318ZM479.998 142.253C479.998 171.765 468.293 200.296 447.429 221.229L443.071 225.6C410.247 258.531 385.911 302.096 370.737 355.086C356.565 404.58 304.317 480 205.062 480C129.703 480 32.03 419.497 32.03 306.704C32.03 225.754 87.252 159.461 159.093 139.77C287.761 104.504 283.43 32 371.464 32C439.44 32 479.998 89.857 479.998 142.253ZM247.03 176H246.999C177.999 176 112.081 241.295 112.081 311.412C112.081 370.562 157.05 400 200.405 400C200.437 400 200.437 400 200.437 400C269.437 400 335.332 334.697 335.332 264.578C335.332 205.428 290.386 176 247.03 176ZM303.598 264.71C303.598 315.215 254.031 367.393 199.899 367.393C156.111 367.393 143.809 333.499 143.809 311.293C143.809 260.175 194.803 208 247.03 208C281.484 208 303.598 231.717 303.598 264.71Z"/></svg>

<svg xmlns="http://www.w3.org/2000/svg" viewBox="0 0 512 512"><!--! Font Awesome Pro 6.3.0 by @fontawesome - https://fontawesome.com License - https://fontawesome.com/license (Commercial License) Copyright 2023 Fonticons, Inc. --><path d="M512 142.3c0-72.05-56.44-142.3-140.5-142.3c-39.21 0-78.71 15.73-108.1 45.17C232.4 76.31 192.1 97.3 150.6 108.9C115.4 118.6 .0005 170.8 .0005 306.7c0 113.8 92.76 205.3 205.1 205.3c52.37 0 104.7-20.04 144.7-60.13c67.65-67.87 42.56-130 115.1-203.7l4.357-4.371C498 215.8 512 179.1 512 142.3zM479.1 142.3c0 29.51-11.7 58.04-32.57 78.98l-4.357 4.371c-32.82 32.93-57.16 76.5-72.33 129.5C356.6 404.6 304.3 480 205.1 480c-75.36 0-173-60.5-173-173.3c0-80.95 55.22-147.2 127.1-166.9C287.8 104.5 283.4 32 371.5 32C439.4 32 479.1 89.86 479.1 142.3zM247 176c-68.1 0-134.9 65.3-134.9 135.4c0 59.15 44.98 88.59 88.34 88.59c.0313 0 0 0 0 0c69 0 134.9-65.3 134.9-135.4C335.3 205.4 290.4 176 247 176zM303.6 264.7c0 50.51-49.57 102.7-103.7 102.7c-43.79 0-56.09-33.89-56.09-56.1C143.8 260.2 194.8 208 247 208C281.5 208 303.6 231.7 303.6 264.7z"/></svg>
